svgs/thin/bell-on.svg

<svg xmlns="http://www.w3.org/2000/svg" viewBox="0 0 640 512"><!--! Font Awesome Pro 6.3.0 by @fontawesome - https://fontawesome.com License - https://fontawesome.com/license (Commercial License) Copyright 2023 Fonticons, Inc. --><path d="M312 8C312 3.582 315.6 0 320 0C324.4 0 328 3.582 328 8V32L327.1 32.2C412.6 36.36 480 106.3 480 192V228.6C480 270.4 494.2 310.1 520.3 343.6L537.1 364.5C541.6 370.1 544 377.1 544 384.3C544 401.8 529.8 416 512.3 416H127.7C110.2 416 96 401.8 96 384.3C96 377.1 98.45 370.1 102.9 364.5L119.7 343.6C145.8 310.1 160 270.4 160 228.6V192C160 106.3 227.4 36.36 312 32.2L312 32L312 8zM320 48C240.5 48 176 112.5 176 192V228.6C176 274.1 160.5 318.1 132.2 353.6L115.4 374.5C113.2 377.3 112 380.7 112 384.3C112 392.1 119 400 127.7 400H512.3C520.1 400 528 392.1 528 384.3C528 380.7 526.8 377.3 524.6 374.5L507.8 353.6C479.5 318.1 464 274.1 464 228.6V192C464 112.5 399.5 48 319.1 48H320zM286.1 481.9C295.1 490.9 307.3 496 320 496C332.7 496 344.9 490.9 353.9 481.9C362.9 472.9 368 460.7 368 448C368 443.6 371.6 440 376 440C380.4 440 384 443.6 384 448C384 464.1 377.3 481.3 365.3 493.3C353.3 505.3 336.1 512 320 512C303 512 286.7 505.3 274.7 493.3C262.7 481.3 256 464.1 256 448C256 443.6 259.6 440 264 440C268.4 440 272 443.6 272 448C272 460.7 277.1 472.9 286.1 481.9zM0 184C0 179.6 3.582 176 8 176H104C108.4 176 112 179.6 112 184C112 188.4 108.4 192 104 192H8C3.582 192 0 188.4 0 184zM632 176C636.4 176 640 179.6 640 184C640 188.4 636.4 192 632 192H536C531.6 192 528 188.4 528 184C528 179.6 531.6 176 536 176H632zM607.2 36.42C609.1 40.37 607.5 45.18 603.6 47.16L523.6 87.16C519.6 89.13 514.8 87.53 512.8 83.58C510.9 79.63 512.5 74.82 516.4 72.84L596.4 32.84C600.4 30.87 605.2 32.47 607.2 36.42V36.42zM36.42 47.16C32.47 45.18 30.87 40.37 32.84 36.42C34.82 32.47 39.63 30.87 43.58 32.84L123.6 72.84C127.5 74.82 129.1 79.63 127.2 83.58C125.2 87.53 120.4 89.13 116.4 87.16L36.42 47.16z"/></svg>

<svg xmlns="http://www.w3.org/2000/svg" viewBox="0 0 640 512"><!--! Font Awesome Pro 6.4.0 by @fontawesome - https://fontawesome.com License - https://fontawesome.com/license (Commercial License) Copyright 2023 Fonticons, Inc. --><path d="M312 8c0-4.4 3.6-8 8-8s8 3.6 8 8V32l0 .2c84.6 4.2 152 74.1 152 159.8v36.6c0 41.8 14.2 82.3 40.3 114.9l16.7 20.9c4.5 5.6 6.9 12.6 6.9 19.8c0 17.5-14.2 31.7-31.7 31.7H127.7C110.2 416 96 401.8 96 384.3c0-7.2 2.4-14.2 6.9-19.8l16.7-20.9C145.8 311 160 270.4 160 228.6V192c0-85.7 67.4-155.6 152-159.8l0-.2V8zm8 40c-79.5 0-144 64.5-144 144v36.6c0 45.4-15.5 89.5-43.8 124.9l-16.7 20.9c-2.2 2.8-3.4 6.2-3.4 9.8c0 8.7 7 15.7 15.7 15.7H512.3c8.7 0 15.7-7 15.7-15.7c0-3.6-1.2-7-3.4-9.8l-16.7-20.9C479.5 318.1 464 274.1 464 228.6V192c0-79.5-64.5-144-144-144zM272 448c0 12.7 5.1 24.9 14.1 33.9s21.2 14.1 33.9 14.1s24.9-5.1 33.9-14.1s14.1-21.2 14.1-33.9c0-4.4 3.6-8 8-8s8 3.6 8 8c0 17-6.7 33.3-18.7 45.3s-28.3 18.7-45.3 18.7s-33.3-6.7-45.3-18.7s-18.7-28.3-18.7-45.3c0-4.4 3.6-8 8-8s8 3.6 8 8zM0 184c0-4.4 3.6-8 8-8h96c4.4 0 8 3.6 8 8s-3.6 8-8 8H8c-4.4 0-8-3.6-8-8zm536-8h96c4.4 0 8 3.6 8 8s-3.6 8-8 8H536c-4.4 0-8-3.6-8-8s3.6-8 8-8zM607.2 36.4c2 4 .4 8.8-3.6 10.7l-80 40c-4 2-8.8 .4-10.7-3.6s-.4-8.8 3.6-10.7l80-40c4-2 8.8-.4 10.7 3.6zM36.4 47.2c-4-2-5.6-6.8-3.6-10.7s6.8-5.6 10.7-3.6l80 40c4 2 5.6 6.8 3.6 10.7s-6.8 5.6-10.7 3.6l-80-40z"/></svg>
